tools/download-figma-icons/icons/outlined-large/hanover-region.svg

<svg xmlns="http://www.w3.org/2000/svg" width="64" height="64" fill="none" viewBox="0 0 64 64"><path fill="currentColor" fill-rule="evenodd" d="m61 36.073-1.829-.915a1.504 1.504 0 0 0-2.013.671l-2.64 5.282-7.205.9a1.5 1.5 0 0 0-1.236 1.014L45.419 45H40.5c-.397 0-.779.158-1.061.439l-3 3a1.5 1.5 0 0 0 .229 2.309l1.987 1.325-.821 2.053L35.4 52.3a1.5 1.5 0 0 0-1.571-.142l-4 2a1.498 1.498 0 0 0-.39 2.402l2.081 2.08L29.75 61h-2.724l-4.589-3.671a1.5 1.5 0 0 0-.643-.3l-3.529-.706.706-3.529a1.5 1.5 0 0 0-.016-.659l-2-7.999a1.5 1.5 0 0 0-1.091-1.091l-3.16-.79-1.571-5.5 1.615-2.423a1.5 1.5 0 0 0 .223-1.126l-1-5a1.498 1.498 0 0 0-2.409-.877l-3.828 3.062-.446-.557 1.936-3.628A1.5 1.5 0 0 0 5.9 24H3v-2.533l4.229-1.92 7.412 5.182a1.5 1.5 0 0 0 2.252-.673l1.666-4.165 8.107-.9a1.5 1.5 0 0 0 1.205-2.101l-3.318-7.465 7.899-2.495A1.5 1.5 0 0 0 33.5 5.5V3.984l7.302 3.843q.203.107.429.148L51 9.752V13.5a1.5 1.5 0 0 0 1.5 1.5h4.784l-1.177 2.943c-.183.458-.129.978.145 1.389l3.474 5.21-2.512 4.186a1.5 1.5 0 0 0 .615 2.114L61 32.427zm2.171-5.915-2.551-1.275 2.166-3.612a1.5 1.5 0 0 0-.038-1.603l-3.562-5.344 1.707-4.268A1.5 1.5 0 0 0 59.5 12H54V8.5c0-.725-.519-1.346-1.231-1.476L41.995 5.065 32.698.173A1.498 1.498 0 0 0 30.5 1.5v2.9l-8.452 2.669c-.407.129-.74.425-.915.815a1.5 1.5 0 0 0-.004 1.225l3.168 7.126-6.963.774a1.5 1.5 0 0 0-1.227.934l-1.297 3.243-6.564-4.589a1.5 1.5 0 0 0-1.479-.136L.88 19.134A1.5 1.5 0 0 0 0 20.5v5A1.5 1.5 0 0 0 1.5 27h1.9l-1.223 2.294a1.5 1.5 0 0 0 .152 1.643l2 2.5a1.497 1.497 0 0 0 2.108.234l3.076-2.46.394 1.973-1.655 2.484a1.5 1.5 0 0 0-.194 1.244l2 7a1.5 1.5 0 0 0 1.078 1.043l3.127.782 1.7 6.799-.934 4.67a1.5 1.5 0 0 0 1.177 1.764l4.642.929 4.714 3.772c.267.213.597.329.938.329h4c.472 0 .917-.223 1.2-.6l3-4a1.5 1.5 0 0 0-.139-1.961l-1.529-1.528 1.31-.655L37.6 57.7a1.503 1.503 0 0 0 2.293-.644l2-5a1.5 1.5 0 0 0-.561-1.804l-1.478-.986L41.121 48H46.5a1.5 1.5 0 0 0 1.423-1.026l.701-2.103 7.063-.883c.497-.062.93-.369 1.155-.817l2.329-4.659 2.658 1.33a1.5 1.5 0 0 0 1.46-.066c.441-.273.711-.757.711-1.276v-7a1.5 1.5 0 0 0-.829-1.342" clip-rule="evenodd"/></svg>

<svg width="64" height="64" viewBox="0 0 64 64" fill="none" xmlns="http://www.w3.org/2000/svg">
<path fill-rule="evenodd" clip-rule="evenodd" d="M61 36.073L59.171 35.158C58.432 34.791 57.528 35.088 57.158 35.829L54.518 41.111L47.313 42.011C46.741 42.083 46.26 42.477 46.077 43.025L45.419 45H40.5C40.103 45 39.721 45.158 39.439 45.439L36.439 48.439C36.121 48.757 35.963 49.2 36.007 49.647C36.052 50.094 36.294 50.499 36.668 50.748L38.655 52.073L37.834 54.126L35.4 52.3C34.946 51.96 34.337 51.904 33.829 52.158L29.829 54.158C29.397 54.374 29.097 54.784 29.02 55.26C28.942 55.735 29.099 56.219 29.439 56.56L31.52 58.64L29.75 61H27.026L22.437 57.329C22.25 57.178 22.029 57.076 21.794 57.029L18.265 56.323L18.971 52.794C19.015 52.576 19.009 52.351 18.955 52.135L16.955 44.136C16.821 43.598 16.401 43.178 15.864 43.045L12.704 42.255L11.133 36.755L12.748 34.332C12.969 34.001 13.049 33.595 12.971 33.206L11.971 28.206C11.868 27.692 11.505 27.269 11.014 27.091C10.523 26.91 9.972 27 9.562 27.329L5.734 30.391L5.288 29.834L7.224 26.206C7.472 25.741 7.458 25.179 7.187 24.728C6.916 24.276 6.428 24 5.9 24H3V21.467L7.229 19.547L14.641 24.729C15.017 24.991 15.491 25.068 15.929 24.937C16.368 24.806 16.723 24.482 16.893 24.056L18.559 19.891L26.666 18.991C27.142 18.938 27.562 18.661 27.801 18.246C28.039 17.832 28.065 17.328 27.871 16.89L24.553 9.42501L32.452 6.93001C33.076 6.73301 33.5 6.15401 33.5 5.50001V3.98401L40.802 7.82701C40.937 7.89801 41.081 7.94801 41.231 7.97501L51 9.75201V13.5C51 14.328 51.672 15 52.5 15H57.284L56.107 17.943C55.924 18.401 55.978 18.921 56.252 19.332L59.726 24.542L57.214 28.728C56.999 29.087 56.943 29.518 57.06 29.919C57.177 30.32 57.455 30.655 57.829 30.842L61 32.427V36.073ZM63.171 30.158L60.62 28.883L62.786 25.271C63.085 24.774 63.069 24.15 62.748 23.668L59.186 18.324L60.893 14.056C61.077 13.594 61.021 13.071 60.742 12.659C60.463 12.247 59.998 12 59.5 12H54V8.50001C54 7.77501 53.481 7.15401 52.769 7.02401L41.995 5.06501L32.698 0.173006C32.233 -0.0719939 31.676 -0.0559939 31.225 0.216006C30.775 0.487006 30.5 0.974006 30.5 1.50001V4.40001L22.048 7.06901C21.641 7.19801 21.308 7.49401 21.133 7.88401C20.957 8.27301 20.956 8.71901 21.129 9.10901L24.297 16.235L17.334 17.009C16.784 17.07 16.312 17.428 16.107 17.943L14.81 21.186L8.246 16.597C7.812 16.295 7.25 16.242 6.767 16.461L0.88 19.134C0.344 19.378 0 19.911 0 20.5V25.5C0 26.328 0.672 27 1.5 27H3.4L2.177 29.294C1.895 29.823 1.954 30.469 2.329 30.937L4.329 33.437C4.846 34.084 5.788 34.191 6.437 33.671L9.513 31.211L9.907 33.184L8.252 35.668C8.008 36.034 7.937 36.489 8.058 36.912L10.058 43.912C10.205 44.427 10.616 44.825 11.136 44.955L14.263 45.737L15.963 52.536L15.029 57.206C14.866 58.018 15.394 58.808 16.206 58.97L20.848 59.899L25.562 63.671C25.829 63.884 26.159 64 26.5 64H30.5C30.972 64 31.417 63.777 31.7 63.4L34.7 59.4C35.147 58.802 35.089 57.967 34.561 57.439L33.032 55.911L34.342 55.256L37.6 57.7C37.974 57.979 38.455 58.07 38.905 57.944C39.354 57.818 39.72 57.49 39.893 57.056L41.893 52.056C42.156 51.398 41.922 50.645 41.332 50.252L39.854 49.266L41.121 48H46.5C47.146 48 47.719 47.587 47.923 46.974L48.624 44.871L55.687 43.988C56.184 43.926 56.617 43.619 56.842 43.171L59.171 38.512L61.829 39.842C62.294 40.073 62.846 40.049 63.289 39.776C63.73 39.503 64 39.019 64 38.5V31.5C64 30.931 63.679 30.412 63.171 30.158Z" fill="black"/>
</svg>
